!!!!SEGMENT: pl-kk--kk-i-1--004-003_jachet-de-mantua--missa-quam-pulchra-es-patrem.krn
!!!cenid: 15xx:670
!!!COM: Jachet de Mantua
!!!COM-rismid: pe30003816
!!!CDT: 1483-1559/10/02
!!!CNT: French
!!!OPR: [Missa] Quam pulchra es
!!!OTL: Patrem
!!!OMV: 003
!!!PDT:
!!!AGN:
!!!SMS-siglum: PL-Kk
!!!SMS-shelfmark: Kk.I.1
!!!SMS-shelfwork: 004-003 M
!!!SMS-variant:
!!!SMS-altvar:
!!!NIFC-rismid: 300257958
!!!URL-scan: http://repozytorium.nifc.pl/skany/pl-kk-nut--i-1
!!!ONB-nifc: UWAGA: Cantus (s. 21v-30v, skan 0024-0033), Altus (s. 21r-31r, skan 0213-0223), Tenor (s. 22r-31r, skan 0410-0419), Bassus (s. 20v-30r, skan 0582-0591). Części Mszy: 1. Kyrie, 2. Et in terra, 3. Patrem, 4. Sanctus, 5. Agnus Dei
!!!AIN: 1 alto 1 bass 1 soprn 1 tenor
!!!key: F:lyd
**kern	**text	**kern	**text	**kern	**text	**kern	**text
*part4	*part4	*part3	*part3	*part2	*part2	*part1	*part1
*staff4	*staff4	*staff3	*staff3	*staff2	*staff2	*staff1	*staff1
*I"BASSVS	*	*I"TENOR	*	*I"ALTVS	*	*I"CANTVS	*
*I'B	*	*I'T	*	*I'A	*	*I'S	*
*Ibass	*	*Itenor	*	*Ialto	*	*Isoprn	*
*ICvox	*	*ICvox	*	*ICvox	*	*ICvox	*
*clefF4	*	*clefC4	*	*clefC4	*	*clefC4	*
*k[b-]	*	*k[b-]	*	*k[b-]	*	*k[b-]	*
*F:lyd	*	*F:lyd	*	*F:lyd	*	*F:lyd	*
*M2/1	*	*M2/1	*	*M2/1	*	*M2/1	*
*met(C|)	*	*met(C|)	*	*met(C|)	*	*met(C|)	*
=1-	=1-	=1-	=1-	=1-	=1-	=1-	=1-
!!LO:TX:t=P:problem:all\middle:global
!LO:TX:t=P:problem=metrum przed kluczem	!	!	!	!LO:TX:t=P:problem=metrum przed kluczem	!	!LO:TX:t=P:problem=metrum przed kluczem	!
00r	.	00r	.	1F	Pa-	00r	.
.	.	.	.	2F/	-trem	.	.
.	.	.	.	2F/	om-	.	.
=2-	=2-	=2-	=2-	=2-	=2-	=2-	=2-
.	.	.	.	2F/	  ni-	.	.
.	.	.	.	2F/	-po-	.	.
.	.	.	.	1B-	-te(n)-	.	.
=3-	=3-	=3-	=3-	=3-	=3-	=3-	=3-
00r	.	00r	.	1A	-tem,	1F	PA-
.	.	.	.	2r	.	2F/	-trem
.	.	.	.	2F/	Fac-	2F/	om-
=4-	=4-	=4-	=4-	=4-	=4-	=4-	=4-
.	.	.	.	2c\	  to-	2F/	  ni-
.	.	.	.	2c\	-rem	2F/	-po-
.	.	.	.	1d	cae-	1B-	-ten-
=5-	=5-	=5-	=5-	=5-	=5-	=5-	=5-
1FF	PA-	00r	.	1c	-li	1A	-tem,
2FF/	-trem	.	.	2A/	et	2r	.
2FF/	om-	.	.	2.c\	ter-	2F/	fac-
=6-	=6-	=6-	=6-	=6-	=6-	=6-	=6-
2FF/	-ni-	.	.	.	.	2c\	  to-
.	.	.	.	4B-\	-re	.	.
2FF/	-po-	.	.	1A	.	2c\	-rem
1BB-	-ten-	.	.	.	.	1d	c(ae)-
*	*	*	*	*custos:G	*	*	*
!	!	!	!	!LO:LB:g=original	!	!	!
.	.	.	.	2G/	.	.	.
=7-	=7-	=7-	=7-	=7-	=7-	=7-	=7-
1AA	-tem,	1C	PA-	0A	.	1.c	-li
2r	.	2C/	-trem	.	.	.	.
2FF/	Fac-	2C/	om-	.	.	4B-\	et
.	.	.	.	.	.	4A\	ter-
*	*	*	*	*	*	*custos:G	*
=8-	=8-	=8-	=8-	=8-	=8-	=8-	=8-
!	!	!	!	!	!	!LO:PB:g=original	!
2C/	-to-	2C/	  ni-	2r	.	1G	-r(a)e,
*	*	*	*	*	*ij	*	*
2C/	-re(m)	2C/	-po-	2c\	Fac-	.	.
1D	c(ae)-	1F	-ten-	2A\	-to-	2r	.
.	.	.	.	2B-\	-rem	2F/	c(ae)-
=9-	=9-	=9-	=9-	=9-	=9-	=9-	=9-
1C	-li	0E	-te(m),	1c	cae-	2G/	-li
.	.	.	.	.	.	1A	et
2AA/	et	.	.	0c	-li	.	.
*custos:C	*	*	*	*	*	*	*
!LO:PB:g=original	!	!	!	!	!	!	!
1C/	.	.	.	.	.	4G/	ter-
.	.	.	.	.	.	4F/	-re,
=10-	=10-	=10-	=10-	=10-	=10-	=10-	=10-
.	.	2r	.	.	.	4E/	.
.	.	.	.	.	.	4C/	.
4BB-/	.	2C/	fac-	.	.	1F	.
4AA/	ter-	.	.	.	.	.	.
1GG	-re	2G/	-to-	1r	.	.	.
.	.	2G/	-re(m)	.	.	2E/	.
=11-	=11-	=11-	=11-	=11-	=11-	=11-	=11-
1FF	.	1A	cae-	2r	.	1F	.
.	.	.	.	2c\	cae-	.	.
1r	.	1G	-li	2d\	-li	2r	.
*	*	*	*	*	*	*	*ij
.	.	.	.	1e\	et	2.C/	c(ae)-
=12-	=12-	=12-	=12-	=12-	=12-	=12-	=12-
0r	.	2E/	et	.	.	.	.
.	.	.	.	.	.	4D/	.
*	*	*custos:G	*	*	*	*	*
!	!	!LO:LB:g=original	!	!	!	!	!
.	.	1G	ter-	4d\	.	4E/	-li
.	.	.	.	4c\	.	4F/	et
.	.	.	.	4B-\	.	2G/	ter-
.	.	.	.	8A/L	.	.	.
.	.	.	.	8G/J	.	.	.
.	.	4F/	-re;	1c\	ter-	2C/	.
.	.	4E/	.	.	.	.	.
=13-	=13-	=13-	=13-	=13-	=13-	=13-	=13-
2r	.	1D	.	.	.	1F	-re,
2F\	vi-	.	.	2B-\	.	.	.
*	*	*	*	*custos:c	*	*	*Xij
!	!	!	!	!LO:PB:g=original	!	!	!
1.G	-ſi-	1C	.	1c	-re	2r	.
*	*	*	*	*	*Xij	*custos:c	*
!	!	!	!	!	!	!LO:LB:g=original	!
.	.	.	.	.	.	2c\	vi-
=14-	=14-	=14-	=14-	=14-	=14-	=14-	=14-
.	.	1r	.	00r	.	1.d	-ſi-
2G\	-bi-	.	.	.	.	.	.
2F\	-li-	0r	.	.	.	.	.
!	!	!	!	!	!	!LO:TX:t=P:problem=poprawka wysokości	!
2D/	-um	.	.	.	.	2d\	-bi-
=15-	=15-	=15-	=15-	=15-	=15-	=15-	=15-
!	!	!	!	!	!	!LO:TX:t=P:problem=poprawka wysokości	!
2E/	om-	.	.	.	.	2c\	  li-
2F/	-ni-	.	.	.	.	2A/	-um
0G	-um,	2r	.	.	.	2B-\	om-
.	.	2C/	et	.	.	2c\	-ni-
=16-	=16-	=16-	=16-	=16-	=16-	=16-	=16-
.	.	0G	in-	2r	.	2d\	-ǔm,
.	.	.	.	2G/	et	1B-	et
2r	.	.	.	0d	in-	.	.
2GG/	et	.	.	.	.	2B-\	in-
=17-	=17-	=17-	=17-	=17-	=17-	=17-	=17-
2D/	in-	2F/	-ui-	.	.	2A/	-ui-
2BB-/	-ui-	2D/	-ſi-	.	.	4B-\	-ſi-
.	.	.	.	.	.	4A\	-bi-
2C/	-ſi-	2E/	-bi-	2c/	-ui-	4G/	-li-
.	.	.	.	.	.	4F/	-um,
2D/	-bi-	2F/	-li-	2A/	-ſi-	1F/	.
=18-	=18-	=18-	=18-	=18-	=18-	=18-	=18-
2BB-/	.	1G	-um;	2B-/	-bi-	.	.
*custos:C	*	*	*	*	*	*	*
!LO:LB:g=original	!	!	!	!	!	!	!
2C/	-li-	.	.	2G/	-li-	2E/	Et
1FF	-um,	2r	.	0A	-um;	1F	in
.	.	1C/	Et	.	.	.	.
=19-	=19-	=19-	=19-	=19-	=19-	=19-	=19-
2r	.	.	.	.	.	2.E/	.
2AA/	Et	2C/	in	.	.	.	.
.	.	.	.	.	.	4F/	.
*	*	*	*	*	*	*custos:G	*
!	!	!	!	!	!	!LO:LB:g=original	!
2GG/	in	2D/	u-	0r	.	2G/	v-
2FF/	u-	2F/	-num	.	.	2A/	-nu(m)
=20-	=20-	=20-	=20-	=20-	=20-	=20-	=20-
1.C	-num	2.E/	do-	.	.	2G/	do-
.	.	.	.	.	.	2G/	-mi-
.	.	4F/	-mi-	.	.	.	.
.	.	2G/	.	2r	.	1C	-num
*	*	*custos:A	*	*	*	*	*
!	!	!LO:LB:g=original	!	!	!	!	!
2AA/	.	2A/	.	2A/	Et	.	.
=21-	=21-	=21-	=21-	=21-	=21-	=21-	=21-
1BB-	do-	1D	-num	2G/	in	1r	.
.	.	.	.	2F/	u-	.	.
1.AA	-mi-	2.E/	Ie-	1.c	-nu(m)	0r	.
.	.	4D/	-ſum	.	.	.	.
=22-	=22-	=22-	=22-	=22-	=22-	=22-	=22-
.	.	4E/	.	.	.	.	.
.	.	4C/	Chri-	.	.	.	.
2FF/	-num	1F	-ſtum;	2A/	do-	.	.
1GG	.	.	.	1B-	-mi-	2r	.
.	.	2E/	.	.	.	2G/	Ie-
=23-	=23-	=23-	=23-	=23-	=23-	=23-	=23-
2FF/	Ie-	2F/	.	2A/	-num	2A/	-ſum
1F	-ſu(m)	2D/	.	2F/	.	2B-/	.
.	.	1C	.	1G	.	2.c\	Chri-
2E\	Chr(i-	.	.	.	.	.	.
.	.	.	.	.	.	4B-\	-ſtǔm;
=24-	=24-	=24-	=24-	=24-	=24-	=24-	=24-
1F	-stu)m,	0r	.	2F/	Ie-	2A/	.
*	*	*	*	*custos:f	*	*	*
!	!	!	!	!LO:LB:g=original	!	!	!
.	.	.	.	1f	-ſum	2F/	.
1r	.	.	.	.	.	1G	.
.	.	.	.	2e\	Chr(i-	.	.
=25-	=25-	=25-	=25-	=25-	=25-	=25-	=25-
2r	.	2r	.	0f	-stu)m	0F	.
2FF/	fi-	2c\	fi-	.	.	.	.
2FF/	-li-	2c\	-li-	.	.	.	.
2FF/	-um	2c\	-um	.	.	.	.
*custos:BB	*	*	*	*	*	*	*
=26-	=26-	=26-	=26-	=26-	=26-	=26-	=26-
!LO:LB:g=original	!	!	!	!	!	!	!
1BB-	de-	1d	de-	1r	.	1r	.
2AA/	-i	2c\	-i	2r	.	2r	.
1FF/	v-	1F/	v-	1c\	v-	1A\	v-
=27-	=27-	=27-	=27-	=27-	=27-	=27-	=27-
.	.	.	.	.	.	.	.
2FF/	-ni-	2A/	-ni-	2c\	-ni-	2A/	-ni-
1BB-	-ge-	2G/	-ge-	1d	-ge-	1B-	-ge-
.	.	1F/	-ni-	.	.	.	.
=28-	=28-	=28-	=28-	=28-	=28-	=28-	=28-
1C	-ni-	.	.	1c	-ni-	1G	-ni-
*	*	*custos:E	*	*	*	*	*
!	!	!LO:LB:g=original	!	!	!	!	!
.	.	2E/	-tǔm,	.	.	.	.
*	*	*	*	*	*	*custos:F	*
!	!	!	!	!	!	!LO:LB:g=original	!
0FF	-tum,	1F	.	0.A	-tum,	0F	-tǔm,
=29-	=29-	=29-	=29-	=29-	=29-	=29-	=29-
.	.	2r	.	.	.	.	.
.	.	2C/	Et	.	.	.	.
2r	.	1.F	ex	.	.	1r	.
2FF/	Et	.	.	.	.	.	.
=30-	=30-	=30-	=30-	=30-	=30-	=30-	=30-
1.BB-	ex	.	.	1r	.	2r	.
.	.	2F/	pa-	.	.	2F/	Et
.	.	1D	-tre	00r	.	1.B-	ex
2BB-/	pa-	.	.	.	.	.	.
=31-	=31-	=31-	=31-	=31-	=31-	=31-	=31-
1GG	-tre	2r	.	.	.	.	.
.	.	2.G/	na-	.	.	2B-\	pa-
2.C/	na-	.	.	.	.	2G/	-tre
.	.	4F/	-tum,	.	.	.	.
.	.	4E/	.	.	.	1c\	na-
4BB-/	-tum,	4D/	.	.	.	.	.
=32-	=32-	=32-	=32-	=32-	=32-	=32-	=32-
2AA/	.	2C/	.	.	.	.	.
2FF/	.	1F	.	.	.	4B-\	-tum
.	.	.	.	.	.	4A\	.
1GG	.	.	.	2r	.	1B-	.
.	.	2E/	.	2G/	an-	.	.
=33-	=33-	=33-	=33-	=33-	=33-	=33-	=33-
0FF	.	2.F/	.	2c\	  te	2A\	an-
.	.	.	.	1c	om-	2C/	-te
.	.	4G/	.	.	.	.	.
.	.	1A	.	.	.	2F/	om-
.	.	.	.	2c\	-ni-	1F/	-ni-
=34-	=34-	=34-	=34-	=34-	=34-	=34-	=34-
2r	.	00r	.	1A	  a	.	.
2FF/	an-	.	.	.	.	2F/	-a
2BB-/	-te	.	.	2r	.	1D	ſe-
*custso:BB	*	*	*	*	*	*	*
!LO:LB:g=original	!	!	!	!	!	!	!
2BB-/	om-	.	.	2.d\	ſe-	.	.
=35-	=35-	=35-	=35-	=35-	=35-	=35-	=35-
2GG/	-ni-	.	.	.	.	2.G/	-cu-
.	.	.	.	4c\	.	.	.
1G	-a	.	.	4B-/	.	.	.
.	.	.	.	4A/	.	4F/	-la,
.	.	.	.	2G/	.	2E/	De-
*	*	*	*	*custos:c	*	*	*
!	!	!	!	!LO:LB:g=original	!	!	!
4F\	.	.	.	1c\	.	2C/	-um
4E\	.	.	.	.	.	.	.
*	*	*	*	*	*	*custos:D	*
=36-	=36-	=36-	=36-	=36-	=36-	=36-	=36-
!	!	!	!	!	!	!LO:PB:g=original	!
2F\	ſe-	2r	.	.	.	1D	de
2F\	-cu-	2D/	De-	2B-\	-cu-	.	.
1G	-la,	2G/	-um	1c	-la;	2C/	de-
.	.	2E/	de	.	.	2c\	-o,
*	*	*custos:F	*	*	*	*	*
=37-	=37-	=37-	=37-	=37-	=37-	=37-	=37-
!	!	!LO:PB:g=original	!	!	!	!	!
2r	.	1F	de-	1r	.	2A/	lu-
2D/	De-	.	.	.	.	2B-/	-men
2G\	-um	1C	-o,	2r	.	1c	.
2E\	de	.	.	2c\	De-	.	.
=38-	=38-	=38-	=38-	=38-	=38-	=38-	=38-
1F	de-	2r	.	2A/	-u(m)	1F	.
.	.	2D/	lu-	2B-\	de	.	.
1C	-o,	2G/	-men	1c	de-	2r	.
.	.	2E/	de	.	.	2c\	de
=39-	=39-	=39-	=39-	=39-	=39-	=39-	=39-
2r	.	2F/	lu-	1F	-o;	2A/	lu-
2D/	lu-	2F/	-mi-	.	.	2B-\	-mi-
2G\	-me(n)	1C	-ne;	2r	.	2c\	-ne;
2E\	de	.	.	2c\	lu-	2c\	.
=40-	=40-	=40-	=40-	=40-	=40-	=40-	=40-
2F\	lu-	2r	.	2A/	-me(n)	1F	.
2F\	-mi-	2D/	de-	2B-\	de	.	.
1C	-(n)e,	2G/	-um	2c\	lu-	2r	.
.	.	2E/	ve-	2c\	-mi-	2c\	de-
=41-	=41-	=41-	=41-	=41-	=41-	=41-	=41-
2r	.	1F	-rum,	1F	-(n)e,	2A\	-um
2D/	de-	.	.	.	.	2B-\	ue-
*custos:G	*	*	*	*	*	*	*
!LO:PB:g=original	!	!	!	!	!	!	!
1G	-um	1C	.	2r	.	1c	-rǔm,
.	.	.	.	2c\	de-	.	.
=42-	=42-	=42-	=42-	=42-	=42-	=42-	=42-
1F	ue-	2r	.	2d\	-um	2F/	de
.	.	2F/	de	1c	ue-	2A/	de-
*	*	*	*	*	*	*custos:G	*
!	!	!	!	!	!	!LO:LB:g=original	!
1.C	-rum	2G/	de-	.	.	2G/	-o
.	.	2C/	-o	4B-/	.	1c\	ve-
.	.	.	.	4A/	.	.	.
*	*	*	*	*custos:G	*	*	*
=43-	=43-	=43-	=43-	=43-	=43-	=43-	=43-
!	!	!	!	!LO:LB:g=original	!	!	!
.	.	2E/	ve-	2G/	-rum	.	.
*	*	*custos:F	*	*	*	*	*
!	!	!LO:LB:g=original	!	!	!	!	!
2D/	de	2F/	-ro,	2.d\	.	4B-\	-ro;
.	.	.	.	.	.	4A\	.
2E/	de-	1G	.	.	.	2G/	.
.	.	.	.	4c\	de	.	.
2C/	-o	.	.	1c\	de-	2c\	.
=44-	=44-	=44-	=44-	=44-	=44-	=44-	=44-
1G	ue-	2r	.	.	.	1d	.
.	.	1G	Ge-	2B-\	-o	.	.
1C	-ro;	.	.	2.c\	ve-	0.c	.
.	.	2E/	-ni-	.	.	.	.
.	.	.	.	4B-\	-ro,	.	.
=45-	=45-	=45-	=45-	=45-	=45-	=45-	=45-
2r	.	2F/	-tum	2A/	.	.	.
1C	Ge-	2G/	no(n)	2G/	.	.	.
.	.	1A	fac-	2r	.	.	.
2AA/	-ni-	.	.	2c\	Ge-	.	.
=46-	=46-	=46-	=46-	=46-	=46-	=46-	=46-
2BB-/	-tu(m)	1G	-tu(m)	2d\	-ni-	1r	.
2C/	no(n)	.	.	2c\	-tum	.	.
1D	fac-	00r	.	2A/	no(n)	2r	.
.	.	.	.	2B-\	fac-	2F/	Con-
=47-	=47-	=47-	=47-	=47-	=47-	=47-	=47-
1C	-tu(m)	.	.	2c\	-tu(m)	1.G	-ſub-
.	.	.	.	2c\	con-	.	.
2r	.	.	.	1.d	-ſub-	.	.
2GG/	con-	.	.	.	.	2G/	-ſtan-
=48-	=48-	=48-	=48-	=48-	=48-	=48-	=48-
2.BB-/	-ſub-	.	.	.	.	2F/	-ti-
.	.	.	.	2d\	-ſtan-	2D/	-a-
4AA/	-ſtan-	.	.	.	.	.	.
!LO:TX:t=P:problem=odtąd skreślenia i poprawki nutowe	!	!	!	!	!	!	!
2AA/	-ti-	2r	.	2c\	-ti-	2E/	-lem
*	*	*	*	*custos:A	*	*	*
!	!	!	!	!LO:PB:g=original	!	!	!
2FF/	-a-	2A/	Con-	2A/	-a-	2F/	pa-
*custos:GG	*	*	*	*	*	*	*
=49-	=49-	=49-	=49-	=49-	=49-	=49-	=49-
!LO:LB:g=original	!	!	!	!	!	!	!
2GG/	-lem	2G/	-ſub-	2B-/	-lem	2D/	-tri,
2AA/	pa-	2E/	-ſtan-	2c\	.	4r	.
*	*	*	*	*	*	*	*ij
.	.	.	.	.	.	4A/	Con-
1FF	-tri	2F/	-ti-	2A/	.	2A/	-ſub-
*	*	*	*	*	*	*custos:F	*
!	!	!	!	!	!	!LO:LB:g=original	!
.	.	2D/	-a-	2.d\	.	2F/	.
=50-	=50-	=50-	=50-	=50-	=50-	=50-	=50-
1r	.	2E/	-lem,	.	.	2G/	-ſtan-
.	.	.	.	4c\	pa-	.	.
.	.	2F/	p(at)-	1c	-tri,	2A/	-ti-
2r	.	1D	-ri,	.	.	2F/	-a-
2GG/	per	.	.	2B-/	.	2G/	-lem
=51-	=51-	=51-	=51-	=51-	=51-	=51-	=51-
2AA/	quem	2r	.	1c	.	1E	pa-
1C	om-	2C/	per	.	.	.	.
.	.	2D/	que(m)	2r	.	1F	-tri,
*	*	*custos:F	*	*	*	*	*Xij
!	!	!LO:LB:g=original	!	!	!	!	!
2BB-/	-ni-	2F/	om -	2F/	per	.	.
=52-	=52-	=52-	=52-	=52-	=52-	=52-	=52-
2.C/	-a	2.E/	-ni-	2c\	.	2r	.
.	.	.	.	2c\	quem	2C/	per
8BB-/L	.	4F/	-a	.	.	.	.
8AA/J	.	.	.	.	.	.	.
2GG/	fac-	2G/	fac-	2B-\	.	2D/	quem
2FF/	-ta	1A\	-ta	1c\	om-	2F/	om-
=53-	=53-	=53-	=53-	=53-	=53-	=53-	=53-
2.AA/	.	.	.	.	.	2E/	-ni-
.	.	4G/	ſunt,	4B-/	-ni-	2C/	-a
4BB-/	ſunt;	4F/	.	4A/	-a	.	.
2C/	.	2E/	.	2G/	fac-	2c\	fac-
2D/	.	1F/	.	2F/	-ta	2B-\	-ta
=54-	=54-	=54-	=54-	=54-	=54-	=54-	=54-
1C	.	.	.	1G	ſu(n)t,	1c	ſǔnt
.	.	2E/	.	.	.	.	.
2r	.	0F	.	2r	.	2A/	.
*	*	*	*	*custos:c	*	*	*
!	!	!	!	!LO:LB:g=original	!	!	!
1F\	Qui	.	.	1c\	qui	4F/	.
.	.	.	.	.	.	4G/	.
=55-	=55-	=55-	=55-	=55-	=55-	=55-	=55-
.	.	.	.	.	.	4A/	.
.	.	.	.	.	.	4B-/	.
*	*	*	*	*	*	*custos:c	*
!	!	!	!	!	!	!LO:LB:g=original	!
2A\	pro-	.	.	2c\	prop-	1c	.
*custos:G	*	*	*	*	*	*	*
!LO:LB:g=original	!	!	!	!	!	!	!
1G	-pter	1r	.	1d	-ter	.	.
.	.	.	.	.	.	2B-\	.
=56-	=56-	=56-	=56-	=56-	=56-	=56-	=56-
4C/	nos	2r	.	2c\	nos	1c	.
4D/	.	.	.	.	.	.	.
4E\	.	2.C/	Et	4C/	ho-	.	.
4F\	.	.	.	4D/	-mi-	.	.
2G\	ho-	.	.	4E/	-nes,	2r	.
.	.	4D/	prop-	4F/	.	.	.
2.C/	-mi-	4E/	-ter	2G/	.	2c\	Qui
.	.	4F/	.	.	.	.	.
=57-	=57-	=57-	=57-	=57-	=57-	=57-	=57-
.	.	2G/	noſ-	2C/	.	2c\	prop-
4D/	-nes,	.	.	.	.	.	.
2E/	.	2E/	-tram	1c	.	2c\	-ter
1D	.	1F	.	.	.	1d	nos
.	.	.	.	2B-\	.	.	.
*	*	*custos:C	*	*	*	*	*
=58-	=58-	=58-	=58-	=58-	=58-	=58-	=58-
!	!	!LO:LB:g=original	!	!	!	!	!
1r	.	4C/	.	1c	.	2c\	ho-
.	.	4D/	.	.	.	.	.
.	.	4E/	.	.	.	4C/	-mi-
.	.	4F/	.	.	.	4D/	-nes
2r	.	2G/	.	2r	.	4E/	.
.	.	.	.	.	.	4F/	.
2C/	et	4C/	ſa-	2c\	et	2G/	.
.	.	4D/	-lu-	.	.	.	.
=59-	=59-	=59-	=59-	=59-	=59-	=59-	=59-
2C/	prop-	4E/	-tem	2c\	prop-	2C/	et
.	.	4F/	.	.	.	.	.
2C/	-ter	1G	.	2c\	-ter	1c	prop-
1D	.	.	.	1f	n(os-	.	.
.	.	2F/	.	.	.	2B-\	-ter
=60-	=60-	=60-	=60-	=60-	=60-	=60-	=60-
2C/	noſ-	2G/	.	2e\	-t)ram	0c	.
4FF/	-tram	2.A/	.	2.c\	.	.	.
4GG/	.	.	.	.	.	.	.
4AA/	ſa-	.	.	.	.	.	.
4BB-/	.	4G/	.	4B-\	ſa-	.	.
*	*	*	*	*custos:G	*	*	*
!	!	!	!	!LO:LB:g=original	!	!	!
2C/	.	2E/	.	2G/	-lu-	.	.
*custos:FF	*	*	*	*	*	*	*
=61-	=61-	=61-	=61-	=61-	=61-	=61-	=61-
!LO:LB:g=original	!	!	!	!	!	!	!
2FF/	.	2F/	.	2A/	-tem;	1r	.
1F	.	2D/	.	2F/	.	.	.
*	*	*	*	*lig	*	*	*
.	.	1C	.	1G	.	2r	.
2E\	-lu-	.	.	.	.	2C/	no-
*	*	*	*	*	*	*custos:c	*
=62-	=62-	=62-	=62-	=62-	=62-	=62-	=62-
!	!	!	!	!	!	!LO:PB:g=original	!
00F	-tem,	2r	.	1A	.	1.c	-ſtram
.	.	2F/	de-	.	.	.	.
*	*	*	*	*Xlig	*	*	*
.	.	1.c	-ſcen-	2r	.	.	.
.	.	.	.	2F/	de-	2B-/	ſa-
=63-	=63-	=63-	=63-	=63-	=63-	=63-	=63-
.	.	.	.	1c	-ſcen-	2A/	-lu-
.	.	2B-\	-dit	.	.	2G/	-tem
*	*	*custos:A	*	*	*	*	*
!	!	!LO:PB:g=original	!	!	!	!	!
.	.	2A/	de	2c\	-dit	2.F/	.
.	.	2G/	.	2B-\	.	.	.
.	.	.	.	.	.	4E/	de-
=64-	=64-	=64-	=64-	=64-	=64-	=64-	=64-
2r	.	2.F/	cae-	2A/	de	2D/	-ſcen-
2FF/	de-	.	.	2G/	.	2C/	-dit
.	.	4E/	-lis;	.	.	.	.
2BB-/	-ſscen-	2D/	.	2.F/	.	2r	.
2AA/	-dit	2C/	.	.	.	2F/	de
.	.	.	.	4E/	.	.	.
=65-	=65-	=65-	=65-	=65-	=65-	=65-	=65-
2GG/	de	2r	.	4D/	.	2G/	c(ae)-
.	.	.	.	4C/	.	.	.
2FF/	c(ae)-	2c\	de	1F	.	2A/	-lis,
1C	-lis:	1c	ſp(irit)u	.	.	1G	.
.	.	.	.	2E/	cae-	.	.
=66-	=66-	=66-	=66-	=66-	=66-	=66-	=66-
0FF	.	00A	ſ(an)cto,	00F	-lis;	1F	.
.	.	.	.	.	.	1r	.
=67-	=67-	=67-	=67-	=67-	=67-	=67-	=67-
2r	.	.	.	.	.	2r	.
2FF/	Et	.	.	.	.	2C/	Et
2FF/	in-	.	.	.	.	2C/	in-
2FF/	-car-	.	.	.	.	2C/	-car-
=68-	=68-	=68-	=68-	=68-	=68-	=68-	=68-
1BB-	-na-	0r	.	0r	.	1D	-na-
1GG	-tus	.	.	.	.	1E	-tǔs
*	*	*	*	*	*	*custos:F	*
=69-	=69-	=69-	=69-	=69-	=69-	=69-	=69-
!	!	!	!	!	!	!LO:LB:g=original	!
0FF	eſt	2r	.	2r	.	0F	eſt
*	*	*	*ij	*	*	*	*
.	.	1A	de	1c	de	.	.
*	*	*	*	*custos:c	*	*	*
!	!	!	!	!LO:LB:g=original	!	!	!
.	.	2A/	ſp(i-	2c\	ſpi-	.	.
=70-	=70-	=70-	=70-	=70-	=70-	=70-	=70-
00r	.	1.B-	-ri-	1.d	  ri-	00r	.
.	.	2A/	-t)u	2c\	-tu	.	.
=71-	=71-	=71-	=71-	=71-	=71-	=71-	=71-
.	.	2.G/	ſ(an)-	1B-	ſanc-	.	.
.	.	4F/	.	.	.	.	.
.	.	1E	.	1c	-to;	.	.
=72-	=72-	=72-	=72-	=72-	=72-	=72-	=72-
2r	.	0F	-cto,	0A	.	2r	.
1FF	[[d]]ex	.	.	.	.	1F	ex
*custos:FF	*	*	*Xij	*	*	*	*
!LO:PB:g=original	!	!	!	!	!	!	!
2FF/	Ma-	.	.	.	.	2F/	Ma-
=73-	=73-	=73-	=73-	=73-	=73-	=73-	=73-
1.C	-ri-	00r	.	00r	.	1.G	-ri-
2D/	-a	.	.	.	.	2F/	-a
=74-	=74-	=74-	=74-	=74-	=74-	=74-	=74-
2C/	vir-	.	.	.	.	2E/	vir-
2BB-/	-gi-	.	.	.	.	2D/	-gi-
1AA	-ne:	.	.	.	.	1E	-ne:
*	*	*custos:F	*	*	*	*	*
=75-	=75-	=75-	=75-	=75-	=75-	=75-	=75-
!	!	!LO:LB:g=original	!	!	!	!	!
0FF	Et	0F	Et	0c	Et	0A	Et
=76-	=76-	=76-	=76-	=76-	=76-	=76-	=76-
1.C	ho-	1.E	ho-	1c	ho-	1.G	ho-
.	.	.	.	1c	-mo	.	.
2AA/	-mo	2C/	-mo	.	.	2A/	-mo
=77-	=77-	=77-	=77-	=77-	=77-	=77-	=77-
1BB-	fac-	1D	fac-	1B-	fac-	1F	fac-
1C	-tus	1E	-tus	1G	-tus	1c	-tus
=78-	=78-	=78-	=78-	=78-	=78-	=78-	=78-
0FFl	eſt;	0Fl	eſt;	0Al	eſt,	0cl	eſt:
=79-	=79-	=79-	=79-	=79-	=79-	=79-	=79-
!	!	!LO:TX:b:i:t=Crucifixus\ntacet&colon;	!	!	!	!	!
00r	.	0ryy	.	0c	Cru-	1r	.
.	.	.	.	.	.	0F	Cru-
=80-	=80-	=80-	=80-	=80-	=80-	=80-	=80-
.	.	0ryy	.	1A	-ci-	.	.
.	.	.	.	1B-	-fi-	1D	-ci-
*	*	*	*	*	*	*custos:E	*
=81-	=81-	=81-	=81-	=81-	=81-	=81-	=81-
!	!	!	!	!	!	!LO:LB:g=original	!
0C	Cru-	0ryy	.	2G/	-xus	1E	-fix-
*	*	*	*	*custos:c	*	*	*
!	!	!	!	!LO:PB:g=original	!	!	!
.	.	.	.	1c	e-	.	.
.	.	.	.	.	.	2C/	-us
.	.	.	.	2G/	-tiam	1c\	e-
=82-	=82-	=82-	=82-	=82-	=82-	=82-	=82-
1AA	-ci-	0ryy	.	2A/	pro	.	.
!	!	!	!	!	!	!LO:TX:t=P:problem=poprawka wysokości	!
.	.	.	.	2A/	no-	2c\	-tiam
1BB-	-fi-	.	.	1F	-bis;	2B-\	pro
.	.	.	.	.	.	2.d\	no-
=83-	=83-	=83-	=83-	=83-	=83-	=83-	=83-
1GG	-xǔs	0ryy	.	0G	.	.	.
.	.	.	.	.	.	4c\	-bis,
.	.	.	.	.	.	4B-\	.
.	.	.	.	.	.	4A\	.
2r	.	.	.	.	.	2B-\	.
1C/	e-	.	.	.	.	2G/	.
=84-	=84-	=84-	=84-	=84-	=84-	=84-	=84-
.	.	0ryy	.	2r	.	2A/	.
*custos:GG	*	*	*	*	*ij	*	*
!LO:LB:g=original	!	!	!	!	!	!	!
2GG/	-ti-	.	.	2G/	e-	2B-\	.
2AA/	-am	.	.	1E	-ti-	1c	.
2AA/	pro	.	.	.	.	.	.
=85-	=85-	=85-	=85-	=85-	=85-	=85-	=85-
1FF	no-	0ryy	.	1F	-am	2r	.
.	.	.	.	.	.	2c\	ſub
1GG	-bis;	.	.	1D	pro-	2c\	Pon-
.	.	.	.	.	.	2B-\	-ti-
=86-	=86-	=86-	=86-	=86-	=86-	=86-	=86-
2r	.	0ryy	.	1C	-no-	2A\	-o
2G\	ſub	.	.	.	.	2G/	pi-
*	*	*	*	*	*	*custos:A	*
!	!	!	!	!	!	!LO:LB:g=original	!
1.F	Pon-	.	.	1c	-bis	2.A\	-la-
*	*	*	*	*	*Xij	*	*
.	.	.	.	.	.	4B-\	-to;
=87-	=87-	=87-	=87-	=87-	=87-	=87-	=87-
.	.	0ryy	.	1r	.	2c\	.
2D/	-ti-	.	.	.	.	2d\	.
1E	-o	.	.	0c	ſub	1G	.
=88-	=88-	=88-	=88-	=88-	=88-	=88-	=88-
1F	Pi-	0ryy	.	.	.	2.A/	.
.	.	.	.	.	.	4G/	.
0D	-la-	.	.	1.f	Pon-	4A\	.
.	.	.	.	.	.	4B-\	.
.	.	.	.	.	.	1c\	.
=89-	=89-	=89-	=89-	=89-	=89-	=89-	=89-
.	.	0ryy	.	.	.	.	.
.	.	.	.	2d\	   ti-	2B-\	.
2C/	-to,	.	.	2e\	-o	1c	.
2F\	.	.	.	2f\	Pi-	.	.
*	*	*	*	*custos:d	*	*	*
=90-	=90-	=90-	=90-	=90-	=90-	=90-	=90-
!	!	!	!	!LO:LB:g=original	!	!	!
1G	.	0ryy	.	1d	-la-	1r	.
1C	.	.	.	1e	-to,	0c	Paſ-
=91-	=91-	=91-	=91-	=91-	=91-	=91-	=91-
0F	Paſ-	0ryy	.	1r	.	.	.
.	.	.	.	0f	paſ-	1c	-ſǔs
=92-	=92-	=92-	=92-	=92-	=92-	=92-	=92-
1F	-sus	0ryy	.	.	.	1A	et
1D	et	.	.	1f	-ſus	1F	ſe-
=93-	=93-	=93-	=93-	=93-	=93-	=93-	=93-
1BB-	ſe-	0ryy	.	1d	et	2.B-\	-pul-
.	.	.	.	.	.	4A/	.
*custos:C	*	*	*	*	*	*custos:G	*
!LO:LB:g=original	!	!	!	!	!	!LO:PB:g=original	!
2C/	-pul-	.	.	2c\	ſe-	2G/	-tus
2D/	-tus	.	.	1f\	-pul-	2F/	eſt,
=94-	=94-	=94-	=94-	=94-	=94-	=94-	=94-
1C	eſt;	0ryy	.	.	.	1G	.
.	.	.	.	2e\	-tus	.	.
2r	.	.	.	1f	eſt.	2F/	.
2FF/	Et	.	.	.	.	2A/	.
=95-	=95-	=95-	=95-	=95-	=95-	=95-	=95-
2C/	re-	0ryy	.	1r	.	2G/	.
2C/	-ſur-	.	.	.	.	2E/	.
1D	-re-	.	.	2r	.	1F	.
.	.	.	.	2F/	Et	.	.
=96-	=96-	=96-	=96-	=96-	=96-	=96-	=96-
2C/	-xit	0ryy	.	2c\	re-	2r	.
2AA/	ter-	.	.	2c\	-ſur-	2C/	Et
1BB-	-ti-	.	.	1d	-re-	2G/	re-
.	.	.	.	.	.	2G/	-ſu-
=97-	=97-	=97-	=97-	=97-	=97-	=97-	=97-
2AA/	-a	0ryy	.	2c\	-xit	1A	-re-
2FF/	di-	.	.	2A/	ter-	.	.
1GG	-e;	.	.	1B-	-ti-	2G/	-xit
.	.	.	.	.	.	2E/	ter-
=98-	=98-	=98-	=98-	=98-	=98-	=98-	=98-
1FF	.	0ryy	.	2A/	-a	1F	-ti-
*	*	*	*	*custos:F	*	*	*
!	!	!	!	!LO:LB:g=original	!	!	!
.	.	.	.	2F/	di-	.	.
2r	.	.	.	1G	-e;	2E/	-a
2C/	ſe-	.	.	.	.	2C/	di-
=99-	=99-	=99-	=99-	=99-	=99-	=99-	=99-
2BB-/	-cun-	0ryy	.	2r	.	2D/	  e
*	*	*	*	*	*	*custos:d	*
!	!	!	!	!	!	!LO:LB:g=original	!
2GG/	-du(m)	.	.	2G/	ſe-	2d\	ſe-
1BB-	ſcri-	.	.	2F/	-cun-	2d\	-cun-
.	.	.	.	2G/	-dum	2d\	-dǔm
=100-	=100-	=100-	=100-	=100-	=100-	=100-	=100-
2.AA/	-ptu-	0ryy	.	2A/	ſcri-	2c\	ſcri-
.	.	.	.	4G/	-ptu-	4B-\	-ptǔ-
4BB-/	.	.	.	4F/	-ras;	4A\	-ras,
*custos:C	*	*	*	*	*	*	*
!LO:LB:g=original	!	!	!	!	!	!	!
2C/	-ras;	.	.	2E/	.	2G/	.
2D/	.	.	.	1F/	.	2F/	.
=101-	=101-	=101-	=101-	=101-	=101-	=101-	=101-
1C	.	0ryy	.	.	.	1G	.
.	.	.	.	2E/	.	.	.
1FF	.	.	.	1F	.	2r	.
.	.	.	.	.	.	2F/	Et
=102-	=102-	=102-	=102-	=102-	=102-	=102-	=102-
2r	.	0ryy	.	1C	.	2G/	a-
2FF/	Et	.	.	.	.	2A/	-ſcen-
2GG/	a-	.	.	2r	.	2B-\	-dit
2AA/	-ſcen-	.	.	2C/	Et	2c\	in
=103-	=103-	=103-	=103-	=103-	=103-	=103-	=103-
2BB-/	-dit	0ryy	.	2D/	a-	1B-	cae-
2C/	in	.	.	2E/	-ſcen-	.	.
1D	coe-	.	.	2.F/	-dit	2A/	-lum
.	.	.	.	.	.	2F/	ſe-
.	.	.	.	4G/	in	.	.
*	*	*	*	*custos:A	*	*	*
=104-	=104-	=104-	=104-	=104-	=104-	=104-	=104-
!	!	!	!	!LO:LB:g=original	!	!	!
1AA	-lu(m)	0ryy	.	1A	coe-	2c\	  det
*	*	*	*	*	*	*custos:c	*
!	!	!	!	!	!	!LO:LB:g=original	!
.	.	.	.	.	.	2c\	ad
2r	.	.	.	1D	-lum,	1d	dex-
2BB-/	ſe-	.	.	.	.	.	.
=105-	=105-	=105-	=105-	=105-	=105-	=105-	=105-
2F\	-det	0ryy	.	0r	.	2c\	-te-
2F\	ad	.	.	.	.	2A/	-ram
1G	dex-	.	.	.	.	1B-	pa-
=106-	=106-	=106-	=106-	=106-	=106-	=106-	=106-
2F\	-te-	0ryy	.	2r	.	1A	-tris,
2D\	-ram	.	.	2F/	ad	.	.
1E	pa-	.	.	1c	dex-	2r	.
.	.	.	.	.	.	2G/	Et
*custos:D	*	*	*	*	*	*	*
=107-	=107-	=107-	=107-	=107-	=107-	=107-	=107-
!LO:PB:g=original	!	!	!	!	!	!	!
1D	-tris,	0ryy	.	1d	-te-	1.A	i-
1r	.	.	.	2c\	-ra(m)	.	.
.	.	.	.	2A/	p(at)-	2A/	-te-
=108-	=108-	=108-	=108-	=108-	=108-	=108-	=108-
2r	.	0ryy	.	1G	-ris,	1B-	-rum
2GG/	Et	.	.	.	.	.	.
1.AA	i-	.	.	0r	.	2A/	.
.	.	.	.	.	.	2.c\	ven-
=109-	=109-	=109-	=109-	=109-	=109-	=109-	=109-
.	.	0ryy	.	.	.	.	.
.	.	.	.	.	.	4B-\	-tu-
2AA/	-te-	.	.	.	.	4A/	-rǔs
.	.	.	.	.	.	4G/	.
1BB-	-rum	.	.	1r	.	2F/	.
.	.	.	.	.	.	2G/	.
=110-	=110-	=110-	=110-	=110-	=110-	=110-	=110-
2AA/	ven-	0ryy	.	2r	.	2A/	.
*	*	*	*	*	*	*custos:G	*
!	!	!	!	!	!	!LO:LB:g=original	!
2.C/	-tu-	.	.	2G/	ven-	2G/	.
.	.	.	.	2.c\	-tu-	2E/	.
4BB-/	-rus	.	.	.	.	.	.
4AA/	.	.	.	.	.	2E/	eſt,
4GG/	.	.	.	4B-\	.	.	.
=111-	=111-	=111-	=111-	=111-	=111-	=111-	=111-
2FF/	eſt;	0ryy	.	2A/	-rus	1F	.
1F	.	.	.	2F/	eſt;	.	.
.	.	.	.	1G	.	2r	.
2E\	.	.	.	.	.	2C/	cum
=112-	=112-	=112-	=112-	=112-	=112-	=112-	=112-
0F	.	0ryy	.	2r	.	2c\	glo-
.	.	.	.	2F/	cum	2c\	-ri-
.	.	.	.	2c\	glo-	2.A\	-a
.	.	.	.	2c\	-ri-	.	.
.	.	.	.	.	.	4B-\	.
*	*	*	*	*custos:A	*	*	*
=113-	=113-	=113-	=113-	=113-	=113-	=113-	=113-
!	!	!	!	!LO:PB:g=original	!	!	!
2r	.	0ryy	.	2.A/	-a	1c	.
2FF/	cum	.	.	.	.	.	.
.	.	.	.	4B-/	.	.	.
2C/	.	.	.	0c	.	2r	.
2C/	glo-	.	.	.	.	2G/	iu-
=114-	=114-	=114-	=114-	=114-	=114-	=114-	=114-
2.AA/	-ri-	0ryy	.	.	.	1A	-di-
4BB-/	.	.	.	.	.	.	.
*custos:C	*	*	*	*	*	*	*
!LO:LB:g=original	!	!	!	!	!	!	!
1C	-a	.	.	2r	.	1G	-ca-
.	.	.	.	2c\	iu-	.	.
=115-	=115-	=115-	=115-	=115-	=115-	=115-	=115-
2r	.	0ryy	.	2d\	 di-	2D/	-re
2C/	iu-	.	.	2c\	-ca-	2E/	vi-
2D/	-di-	.	.	2A/	-re	1.F	-ǔoſ
2BB-/	-ca-	.	.	2B-/	vi-	.	.
=116-	=116-	=116-	=116-	=116-	=116-	=116-	=116-
2AA/	-re	0ryy	.	2c\	-uos	.	.
2C/	vi-	.	.	4G/	et	2E/	et
.	.	.	.	4A/	.	.	.
*	*	*	*	*	*	*custos:D	*
!	!	!	!	!	!	!LO:PB:g=original	!
2BB-/	-uos	.	.	4B-/	.	2D/	mor-
.	.	.	.	4G/	.	.	.
2AA/	et	.	.	1c\	mor-	2C/	-tu-
=117-	=117-	=117-	=117-	=117-	=117-	=117-	=117-
2GG/	mor-	0ryy	.	.	.	1D	-os,
2GG/	-tu-	.	.	2B-\	-tu-	.	.
1FF	-os,	.	.	1c	-os;	1r	.
=118-	=118-	=118-	=118-	=118-	=118-	=118-	=118-
1FF	.	0ryy	.	2r	.	0F	cu-
.	.	.	.	2C/	cu-	.	.
*	*	*	*	*custos:D	*	*	*
!	!	!	!	!LO:LB:g=original	!	!	!
1.BB-	cu-	.	.	2.D/	-ius	.	.
.	.	.	.	4C/	.	.	.
=119-	=119-	=119-	=119-	=119-	=119-	=119-	=119-
.	.	0ryy	.	4D/	.	1F	-ius
.	.	.	.	4E/	.	.	.
2AA/	-ius	.	.	1F	.	.	.
1GG	re-	.	.	.	.	1B-	re-
.	.	.	.	2E/	re-	.	.
=120-	=120-	=120-	=120-	=120-	=120-	=120-	=120-
0FF	-gni	0ryy	.	2.F/	-gni	2.A/	-gni
.	.	.	.	8E/L	.	4G/	.
.	.	.	.	8D/J	.	.	.
.	.	.	.	2C/	.	2F/	.
.	.	.	.	2c\	non	2E/	.
=121-	=121-	=121-	=121-	=121-	=121-	=121-	=121-
2r	.	0ryy	.	2B-\	e-	2D/	.
2AA/	no(n)	.	.	2c\	-rit	2C/	.
2BB-/	e-	.	.	2d\	fi-	1G	.
2C/	-rit	.	.	2c\	-nis,	.	.
*custos:D	*	*	*	*	*	*	*
=122-	=122-	=122-	=122-	=122-	=122-	=122-	=122-
!LO:LB:g=original	!	!	!	!	!	!	!
1.D	fi-	0ryy	.	1A	.	2r	.
.	.	.	.	.	.	1F	non
.	.	.	.	2r	.	.	.
*	*	*	*	*	*ij	*	*
2C/	.	.	.	2c\	non	2E/	e-
=123-	=123-	=123-	=123-	=123-	=123-	=123-	=123-
2BB-/	.	0ryy	.	2d\	e-	4D/	-rit
.	.	.	.	.	.	4C/	.
2AA/	.	.	.	2c\	-rit	1F	fi-
1GG	.	.	.	1B-	fi-	.	.
.	.	.	.	.	.	2E/	-nis
=124-	=124-	=124-	=124-	=124-	=124-	=124-	=124-
*	*	*	*	*	*	*	*ij
2.FF/	.	0ryy	.	2A/	.	2F/	fi-
*	*	*	*	*custos:c	*	*custos:C	*
!	!	!	!	!LO:LB:g=original	!	!LO:LB:g=original	!
.	.	.	.	1c	.	2C/	-nis
*	*	*	*	*	*	*	*Xij
4GG/	.	.	.	.	.	.	.
2AA/	.	.	.	.	.	1F	fi-
2BB-/	.	.	.	4B-\	.	.	.
.	.	.	.	4A\	.	.	.
=125-	=125-	=125-	=125-	=125-	=125-	=125-	=125-
0Cl/	-nis:	0ryy	.	0Gl	-nis	0El	-nis
*	*	*	*	*	*Xij	*	*
=126-	=126-	=126-	=126-	=126-	=126-	=126-	=126-
00r	.	2.C/	Et	1.c	Et	00r	.
.	.	4D/	in	.	.	.	.
.	.	2E/	ſpi-	.	.	.	.
.	.	1F/	-ri-	2c\	in	.	.
=127-	=127-	=127-	=127-	=127-	=127-	=127-	=127-
.	.	.	.	2c\	ſpi-	.	.
.	.	2E/	-tum	2c\	-ri-	.	.
.	.	2F/	ſanc-	1d	-tum	.	.
.	.	2G/	-tum,	.	.	.	.
=128-	=128-	=128-	=128-	=128-	=128-	=128-	=128-
2.C/	Sanc-	1C	.	2.c\	ſanc-	1.c	Sanc-
4D/	.	.	.	8B-/L	-tu(m)	.	.
.	.	.	.	8A/J	.	.	.
2E\	-tum	1r	.	2G/	.	.	.
1F\	do-	.	.	2.A/	.	2c\	-tum
=129-	=129-	=129-	=129-	=129-	=129-	=129-	=129-
.	.	0r	.	.	.	1c	do-
.	.	.	.	4G/	do-	.	.
2E\	-mi-	.	.	1c	.	.	.
2F\	-nu(m)	.	.	.	.	1d	-mi-
*custos:G	*	*	*	*	*	*	*
!LO:LB:g=original	!	!	!	!	!	!	!
2G\	et	.	.	2B-\	-mi-	.	.
*	*	*custos:c	*	*custos:c	*	*	*
=130-	=130-	=130-	=130-	=130-	=130-	=130-	=130-
!	!	!LO:LB:g=original	!	!LO:LB:g=original	!	!	!
2.C/	ui-	1.c	et	1c	-num,	2.c\	-num
4D/	-ui-	.	.	.	.	8B-\L	et
.	.	.	.	.	.	8A\J	.
2E\	-fi-	.	.	0r	.	2G/	ui-
1F\	-can-	2c\	ui-	.	.	2.A/	-ui-
=131-	=131-	=131-	=131-	=131-	=131-	=131-	=131-
.	.	2c\	-ui-	.	.	.	.
.	.	.	.	.	.	4G/	-fi-
2E\	-tem,	2c\	-fi-	.	.	1c	-can-
2F\	.	1d	-can-	2r	.	.	.
2G\	.	.	.	2G/	qui	2B-\	.
*	*	*	*	*	*	*custos:c	*
=132-	=132-	=132-	=132-	=132-	=132-	=132-	=132-
!	!	!	!	!	!	!LO:LB:g=original	!
1C	.	2c\	-tem,	1.c	ex	1c	-tem,
.	.	2C/	qui	.	.	.	.
1r	.	1.F	ex	.	.	1r	.
.	.	.	.	2c/	p(at)-	.	.
=133-	=133-	=133-	=133-	=133-	=133-	=133-	=133-
00r	.	.	.	2A/	-re,	00r	.
.	.	2F/	pa-	1d	fi-	.	.
.	.	2D/	-tre	.	.	.	.
.	.	1G/	fi-	2d\	-li-	.	.
=134-	=134-	=134-	=134-	=134-	=134-	=134-	=134-
.	.	.	.	2B-\	-o-	.	.
.	.	2G/	-li-	2G/	-q(ue),	.	.
.	.	2E/	-o-	2r	.	.	.
.	.	2C/	-q(ue)	2c\	pro-	.	.
=135-	=135-	=135-	=135-	=135-	=135-	=135-	=135-
0r	.	2D/	pro-	2B-/	-ce-	0r	.
.	.	1F	-ce-	2A/	-dit,	.	.
.	.	.	.	1G	.	.	.
.	.	2E/	-dit,	.	.	.	.
=136-	=136-	=136-	=136-	=136-	=136-	=136-	=136-
2r	.	1F	.	1F	.	2r	.
2F\	qui	.	.	.	.	2c\	qǔi
!LO:TX:t=P:tekst:problem= et poprawione na cu(m)	!	!	!	!	!	!	!
2B-\	cu(m)	1r	.	1r	.	2d\	cǔm
2G\	pa-	.	.	.	.	2e\	p(at)-
=137-	=137-	=137-	=137-	=137-	=137-	=137-	=137-
1F	-tre;	2r	.	2r	.	1f	-re
*	*	*custos:F	*	*	*	*	*
!	!	!LO:LB:g=original	!	!	!	!	!
.	.	2F/	et	2c\	et	.	.
1r	.	2B-\	fi-	2d\	fi-	1r	.
.	.	2G/	-li-	2e\	-li-	.	.
=138-	=138-	=138-	=138-	=138-	=138-	=138-	=138-
2r	.	2F/	-o	2f\	-o	2r	.
*	*	*	*	*custos:d	*	*	*
!	!	!	!	!LO:PB:g=original	!	!	!
1BB-	ſi-	1B-	ſi-	1d	ſi-	1F	ſi-
2BB-/	-mul	2B-\	-mul	2d\	-mul	2F/	-mul
=139-	=139-	=139-	=139-	=139-	=139-	=139-	=139-
2BB-/	a-	2d\	a-	2d\	a-	2D/	a-
*custos:C	*	*	*	*	*	*	*
!LO:PB:g=original	!	!	!	!	!	!	!
2C/	-do-	1c	-do-	2e\	-do-	1G	-do-
1D	-ra-	.	.	1f	-ra-	.	.
.	.	2B-\	-ra-	.	.	2F/	-ra-
=140-	=140-	=140-	=140-	=140-	=140-	=140-	=140-
2C/	-tur	1c	-tǔr,	2e\	-tur	2G/	-tur
2F\	et	.	.	2c\	et	2A/	et
2.F\	con-	00r	.	2.c\	con-	2.A/	con-
4E/	-glo-	.	.	4c\	-glo-	4A/	-glo-
=141-	=141-	=141-	=141-	=141-	=141-	=141-	=141-
2D/	-ri-	.	.	2B-/	-ri-	2B-\	-ri-
2C/	-fi-	.	.	1A	-fi-	2c\	-fi-
*	*	*	*	*	*	*custos:d	*
!	!	!	!	!	!	!LO:LB:g=original	!
1BB-	-ca-	.	.	.	.	1d	-ca-
.	.	.	.	2G/	-ca-	.	.
=142-	=142-	=142-	=142-	=142-	=142-	=142-	=142-
1AA	-tur,	.	.	1A	-tur,	1c	-tǔr
1.FF	qui	1.F	qui	1.c	qǔi	1.A	qui
=143-	=143-	=143-	=143-	=143-	=143-	=143-	=143-
.	.	.	.	.	.	.	.
2FF/	lo-	2F/	lo-	2c\	lo-	2A/	lo-
2FF/	-cu-	2F/	-cu-	2c\	-cu-	2A/	-cu-
2FF/	-tus	2F/	-tus	2c\	-tus	2A/	-tus
=144-	=144-	=144-	=144-	=144-	=144-	=144-	=144-
1C	eſt	2.E/	eſt	0c	eſt	2G/	eſt
.	.	.	.	.	.	2C/	per
.	.	4F/	per	.	.	.	.
2r	.	2G/	pro-	.	.	2E/	pro-
2.FF/	per	1A\	.	.	.	2F/	-phe-
=145-	=145-	=145-	=145-	=145-	=145-	=145-	=145-
.	.	.	.	2r	.	2C/	-tas
4GG/	.	.	.	.	.	.	.
4AA/	.	4G/	.	2c\	per	1c	Et
4BB-/	.	4F/	.	.	.	.	.
*custos:C	*	*custos:E	*	*custos:A	*	*	*
!LO:LB:g=original	!	!LO:PB:g=original	!	!LO:LB:g=original	!	!	!
2C/	pro-	2E/	-phe-	2A/	.	.	.
2D/	-phe-	1F/	-tas;	2F/	pro-	2B-\	u-
=146-	=146-	=146-	=146-	=146-	=146-	=146-	=146-
1C	-tas;	.	.	1G	-phe-	1c	-na(m)
.	.	2E/	.	.	.	.	.
0FF	.	1F	.	2.F/	-tas;	1A	ſanc-
.	.	.	.	8E/L	.	.	.
.	.	.	.	8D/J	.	.	.
=147-	=147-	=147-	=147-	=147-	=147-	=147-	=147-
.	.	2r	.	1C	.	1.F	-ta(m)
.	.	2c\	Et	.	.	.	.
1r	.	2A/	u-	0r	.	.	.
.	.	1c\	-nam	.	.	2F/	Ca-
=148-	=148-	=148-	=148-	=148-	=148-	=148-	=148-
2r	.	.	.	.	.	1F	-tho-
2FF/	Et	4B-\	ſanc-	.	.	.	.
.	.	4A\	.	.	.	.	.
*	*	*	*	*	*	*custos:B	*
!	!	!	!	!	!	!LO:PB:g=original	!
2GG/	u-	2G/	-tam	1r	.	1B-	-li-
2GG/	-nam	2G/	Ca-	.	.	.	.
=149-	=149-	=149-	=149-	=149-	=149-	=149-	=149-
2D/	ſanc-	1.F	-tho-	2r	.	0A	-cam;
2E\	-ta(m)	.	.	2c\	ca-	.	.
1F	.	.	.	2A/	-tho-	.	.
.	.	2F/	-li-	1c\	-li-	.	.
=150-	=150-	=150-	=150-	=150-	=150-	=150-	=150-
2r	.	1F	-cam;	.	.	0r	.
2FF/	ca-	.	.	4B-\	-cam	.	.
.	.	.	.	4A\	.	.	.
2GG/	-tho-	1B-	.	1G	.	.	.
2GG/	-li-	.	.	.	.	.	.
=151-	=151-	=151-	=151-	=151-	=151-	=151-	=151-
2D\	-cam	0A	.	1F	et	2r	.
2E\	.	.	.	.	.	2c\	et
1F	.	.	.	2F/	a-	2A/	a-
.	.	.	.	2F/	-po-	1c\	-po-
=152-	=152-	=152-	=152-	=152-	=152-	=152-	=152-
2r	.	0r	.	1F	-ſtho-	.	.
2FF/	et	.	.	.	.	4B-/	-ſto-
.	.	.	.	.	.	4A/	-li-
*custos:GG	*	*	*	*	*	*	*
!LO:LB:g=original	!	!	!	!	!	!	!
2GG/	a-	.	.	1B-	-li-	2G/	-cam
2GG/	-po-	.	.	.	.	2G/	.
=153-	=153-	=153-	=153-	=153-	=153-	=153-	=153-
2.D/	-ſto-	2r	.	1A	-cam	2.F/	.
*	*	*custos:F	*	*	*	*	*
!	!	!LO:LB:g=original	!	!	!	!	!
.	.	2.F/	Ec-	.	.	.	.
4E\	-li-	.	.	.	.	4G/	.
2F\	-ca(m)	.	.	2r	.	4A/	.
.	.	4G/	-cle-	.	.	4B-\	.
*	*	*	*	*custos:F	*	*	*
!	!	!	!	!LO:LB:g=original	!	!	!
2.FF/	ec-	4A/	-ſi-	4F/	Ec-	2c\	Ec-
.	.	4B-\	-am;	4G/	-cle-	.	.
=154-	=154-	=154-	=154-	=154-	=154-	=154-	=154-
.	.	2c\	.	4A/	-ſi-	2.C/	-cle-
4GG/	-cle-	.	.	4B-/	-am;	.	.
4AA/	.	2A/	.	1c	.	.	.
4BB-/	.	.	.	.	.	4D/	-ſi-
2C/	.	2G/	.	.	.	2E/	-am
2D/	.	2.d\	.	4B-\	.	2F/	.
.	.	.	.	4A\	.	.	.
*	*	*	*	*	*	*custos:G	*
=155-	=155-	=155-	=155-	=155-	=155-	=155-	=155-
!	!	!	!	!	!	!LO:LB:g=original	!
2E\	.	.	.	2G/	.	2G/	.
.	.	4c\	.	.	.	.	.
2F\	.	1c	.	2F/	.	2A/	.
1D	-ſi-	.	.	1f	.	1F	.
.	.	2B-\	.	.	.	.	.
=156-	=156-	=156-	=156-	=156-	=156-	=156-	=156-
0C	-am;	2c\	.	1e	.	2r	.
.	.	4C/	con-	.	.	2G/	Con-
.	.	4D/	-fi-	.	.	.	.
.	.	4E/	-te-	0c	.	2G/	-fi-
.	.	4F/	-or	.	.	.	.
.	.	1G/	.	.	.	2G/	-te-
=157-	=157-	=157-	=157-	=157-	=157-	=157-	=157-
1r	.	.	.	.	.	1A	-or
.	.	2F/	.	.	.	.	.
2r	.	1G	.	2r	.	2G/	v-
2C/	v-	.	.	2c\	Con-	2E/	-num
=158-	=158-	=158-	=158-	=158-	=158-	=158-	=158-
2C,/	-nu(m)	0r	.	2c\	  fi-	1G	bap-
2C/	bap-	.	.	2c\	-te-	.	.
1D	-ti-	.	.	2A/	-or	1F	-tiſ-
.	.	.	.	2B-\	v-	.	.
*custos:C	*	*	*	*	*	*	*
=159-	=159-	=159-	=159-	=159-	=159-	=159-	=159-
!LO:LB:g=original	!	!	!	!	!	!	!
2C/	-ſma	2r	.	2c\	-nu(m)	0E	-ma;
*	*	*custos:A	*	*	*	*	*
!	!	!LO:LB:g=original	!	!	!	!	!
2AA/	in	2A/	in	2c\	bap-	.	.
2C/	re-	2G/	re-	2c\	-ti-	.	.
*	*	*	*	*custos:c	*	*	*
!	!	!	!	!LO:LB:g=original	!	!	!
2C/	-miſ-	2E/	-miſ-	2c\	-ſma	.	.
=160-	=160-	=160-	=160-	=160-	=160-	=160-	=160-
1BB-	-si-	2F/	  si-	1d	in	00r	.
.	.	2G/	-o-	.	.	.	.
2.AA/	-o-	2A/	-nem	2c\	re-	.	.
.	.	2F/	pec-	2A/	-miſ-	.	.
4BB-/	-nem	.	.	.	.	.	.
=161-	=161-	=161-	=161-	=161-	=161-	=161-	=161-
2C/	pec-	4E/	-ca-	2G/	-ſio-	.	.
.	.	4D/	-to-	.	.	.	.
2GG/	-ca-	2.G/	-rǔm;	2.B-/	-nem	.	.
2BB-/	-to-	.	.	.	.	.	.
.	.	4F/	.	4A/	pec-	.	.
2D/	-rum;	1F/	.	2F/	-ca-	.	.
=162-	=162-	=162-	=162-	=162-	=162-	=162-	=162-
1C	.	.	.	1G	-to-	2r	.
.	.	2E/	.	.	.	2G/	Et
0FF	.	2F/	.	1F	-ru(m),	1.c	ex-
.	.	2C/	et	.	.	.	.
=163-	=163-	=163-	=163-	=163-	=163-	=163-	=163-
.	.	1.F	ex-	2r	.	.	.
.	.	.	.	2c\	et	2c\	-pec-
2r	.	.	.	1.f	ex-	1A	-to
2FF/	et	2F/	-pec-	.	.	.	.
*	*	*	*	*	*	*custos:d	*
=164-	=164-	=164-	=164-	=164-	=164-	=164-	=164-
!	!	!	!	!	!	!LO:LB:g=original	!
1.BB-	ex-	1D	-to	.	.	2.d\	re-
.	.	.	.	2f\	-pec-	.	.
.	.	.	.	.	.	4d\	-ſur-
.	.	2.G/	re-	1d	-to	2d\	-rec-
2BB-/	-pec-	.	.	.	.	2d\	-ti-
.	.	4G/	-ſur-	.	.	.	.
*	*	*custos:G	*	*	*	*	*
=165-	=165-	=165-	=165-	=165-	=165-	=165-	=165-
!	!	!LO:LB:g=original	!	!	!	!	!
1GG	-to	2G/	-rec-	2.g\	re-	1B-	-o-
.	.	2G/	-ti-	.	.	.	.
.	.	.	.	4g\	-ſur-	.	.
*custos:C	*	*	*	*	*	*	*
!LO:PB:g=original	!	!	!	!	!	!	!
2.C/	re-	1E	-o-	2g\	-rec-	1G	-nem
.	.	.	.	2g\	-ti-	.	.
4C/	-ſur-	.	.	.	.	.	.
=166-	=166-	=166-	=166-	=166-	=166-	=166-	=166-
2C/	-rec-	2C/	-nem	1e	-o-	2r	.
2C/	-ti-	1c	mor-	.	.	2G/	mor-
*	*	*	*	*custos:c	*	*	*
!	!	!	!	!LO:PB:g=original	!	!	!
2AA/	-o-	.	.	2.c\	-nem	2A/	-tu-
2FF/	-nem	4B-\	-tu-	.	.	4G/	-o-
.	.	4A\	-o-	4d\	.	4F/	-rǔm,
=167-	=167-	=167-	=167-	=167-	=167-	=167-	=167-
2C/	mor-	2G/	-rǔm,	2e\	.	2E/	.
1BB-	-tu-	2.B-\	.	1d	mor-	1F	.
.	.	4A/	.	.	.	.	.
2C/	-o-	4G/	.	1c\	-tu-	2E/	.
.	.	4F/	.	.	.	.	.
=168-	=168-	=168-	=168-	=168-	=168-	=168-	=168-
1GG	-rǔm	1G	.	.	.	1D	.
.	.	.	.	2B-/	-o-	.	.
2r	.	2.E/	.	0c	-rum;	1C	.
2G\	Et	.	.	.	.	.	.
.	.	4D/	.	.	.	.	.
=169-	=169-	=169-	=169-	=169-	=169-	=169-	=169-
2G\	ui-	1C	.	.	.	2r	.
2E\	-ta(m)	.	.	.	.	2c\	Et
2F\	ven-	2r	.	1r	.	2A/	ui-
2G\	-tu-	2G/	Et	.	.	2B-\	-tam
*	*	*	*	*	*	*custos:c	*
=170-	=170-	=170-	=170-	=170-	=170-	=170-	=170-
!	!	!	!	!	!	!LO:LB:g=original	!
1C	-ri	2G/	ui-	2r	.	2c\	ven-
.	.	2E/	-ta(m)	2c\	et	2G/	-tu-
2r	.	2F/	ven-	2A/	vi-	1d	-ri
2G\	ven-	2G/	-tu-	2B-/	-tam	.	.
*	*	*custos:C	*	*	*	*	*
=171-	=171-	=171-	=171-	=171-	=171-	=171-	=171-
!	!	!LO:PB:g=original	!	!	!	!	!
2G\	-tu-	2C/	-ri	2c/	ue(n)-	1r	.
2E/	-ri	1c	ſe-	2G/	-tu-	.	.
*custos:F	*	*	*	*	*	*	*ij
!LO:LB:g=original	!	!	!	!	!	!	!
2F\	ſe-	.	.	1d	-ri	2r	.
2G\	-cu-	2B-\	-cu-	.	.	2G/	Et
=172-	=172-	=172-	=172-	=172-	=172-	=172-	=172-
1C	-li,	0c	-li,	2r	.	2G/	ui-
.	.	.	.	2c\	ſe-	2E/	-tam
2r	.	.	.	2A/	-cu-	2F/	ven-
*	*ij	*	*	*	*	*	*
2C/	ven-	.	.	1c\	-li;	2G/	-tu-
=173-	=173-	=173-	=173-	=173-	=173-	=173-	=173-
2C/	-tu-	1r	.	.	.	2C/	-ri
*	*	*	*	*	*	*	*Xij
2AA/	-ri	.	.	4B-/	.	1F	.
.	.	.	.	4A/	.	.	.
2BB-/	.	2r	.	1G	A-	.	.
*	*	*	*ij	*	*	*	*
2C/	.	2c\	Et	.	.	2E/	.
*	*	*	*	*custos:F	*	*	*
=174-	=174-	=174-	=174-	=174-	=174-	=174-	=174-
!	!	!	!	!LO:LB:g=original	!	!	!
2FF/	ſe-	2c\	ui-	1F	-men:	2.F/	ſe-
1F	-cu-	2A/	-ta(m)	.	.	.	.
.	.	.	.	.	.	4E/	-cu-
.	.	2B-\	ven-	2r	.	2D/	-li
*	*	*	*	*	*ij	*	*
2E\	-li	2c\	-tu-	2c\	et	2C/	.
*	*Xij	*	*	*	*	*	*
=175-	=175-	=175-	=175-	=175-	=175-	=175-	=175-
2.F\	ſe-	2F/	-ri	2c\	vi-	2r	.
*	*	*	*	*	*	*	*ij
.	.	2c\	ſe-	2A\	-tam	2c\	Et
4E\	-cu-	.	.	.	.	.	.
*	*	*	*	*	*	*custos:f	*
!	!	!	!	!	!	!LO:PB:g=original	!
2D/	-li.	2d\	.	2B-\	.	2f\	ui-
2C/	.	2c\	.	2c\	ue(n)-	2e\	.
=176-	=176-	=176-	=176-	=176-	=176-	=176-	=176-
*	*	*	*	*lig	*	*	*
1D	.	2A/	-cu-	1F	-tu-	1f	-tam
.	.	2B-\	.	.	.	.	.
1C	.	2c\	.	1G	.	2e\	ven-
*	*	*custos:C	*	*	*	*	*
!	!	!LO:LB:g=original	!	!	!	!	!
.	.	2.C/	-li	.	.	1c\	-tu-
*	*	*	*Xij	*Xlig	*	*	*
=177-	=177-	=177-	=177-	=177-	=177-	=177-	=177-
2r	.	.	.	2C/	-ri	.	.
.	.	4D/	.	.	.	.	.
1C	A-	4E/	.	2.c\	ſe-	4B-/	.
.	.	4F/	.	.	.	4A/	.
.	.	2G/	.	.	.	2G/	-ri
.	.	.	.	4d\	.	.	.
2AA/	.	2C/	A-	2e\	-cu-	2c\	ſe-
=178-	=178-	=178-	=178-	=178-	=178-	=178-	=178-
1BB-	.	4D/	-men:	1d	-li	1B-	  cu-
*	*	*	*	*	*Xij	*	*
.	.	4E/	.	.	.	.	.
.	.	1F	.	.	.	.	.
1C	.	.	.	2r	.	1G	-li
*	*	*	*	*	*	*	*Xij
.	.	2E/	.	2c\	ſe-	.	.
=179-	=179-	=179-	=179-	=179-	=179-	=179-	=179-
00FF	-men.	00Fl;\	.	2c\	-cu-	2.A/	A-
.	.	.	.	2c\	-li	.	.
.	.	.	.	.	.	4B-/	-men
.	.	.	.	2.A/	A-	1.c	.
.	.	.	.	4B-\	-men	.	.
=180-	=180-	=180-	=180-	=180-	=180-	=180-	=180-
.	.	.	.	0cl	.	.	.
.	.	.	.	.	.	2A/	.
.	.	.	.	.	.	1A;l	.
==	==	==	==	==	==	==	==
*-	*-	*-	*-	*-	*-	*-	*-
!!!system-decoration: [s1,s2,s3,s4]
!!!RDF**kern: l = terminal long
!!!ENC: Katarzyna Serwa
!!!END: 2022-02-18
!!!ENC: Mateusz Solarz
!!!END: 2022-02-01
